X:14983
T:Schottische
R:Schottische
O:France
M:C
K:G
D2EFG2AB|cBAG AdAd|D2EFG2AB\
|1 cBAG FGEF:|2 cBAFG4:|\
|:d2d2c2AB|cBAG FDFA|c2c2B2AG\
|1 FGAF FDFA:|2 FGAFG4:|\
A2ABc2BA|AGAcB4|A2ABc2cB|AGAFG4:|\
|:d2de dcAc|BABcB4|d2de dcAc|BAFAG4:|
